!!!OTL: 42d. Schoen Ulrich und Rautendelein.
!!!ARE: Europa, Mitteleuropa, Deutschland, Breslau
!!!SCT: E0042C
!!!TXL: @@DE
!!!YEM: Copyright 1995, estate of Helmut Schaffrath.
**kern	**text
*ICvox	*
*M2/4	*
*k[f#]	*
*G:	*
!LO:TX:a:t=Gemäßigt.	!
!LO:TX:a:t=Aus Breslauer Gegend.	!
{8g	Schön
=1	=1
8g	U-
8b/	-le-
8dd	-rich
8b	und
=2	=2
8ee	Han-
8cc	-ſe-
8dd}	-lein,
{8b	die
=3	=3
8dd	wollten
8dd	ʒu-
8cc	-ſammen
8a	ein
=4	=4
8g	Mä-
8b/	-del
8a}	frein,
{8d	die
=5	=5
8g	wollten
8g	ʒu-
8a	-ſammen
8dd	ein
=6	=6
(8ccqq	.
4b)	Mä-
8aL	-del
8f#J	.
=7	=7
4g	frein.
8r}	.
==	==
!!!AGN: erzaehlendes Volks - Lied, Ritter -, Raeuber - Sage, Ballade ?
!!!ONB: ESAC (Essen Associative Code) Database: ERK1
!!!AMT: simple duple
!!!AIN: vox
!!!EED: Helmut Schaffrath
!!!EEV: 1.0
!!!GTL: Ritter- und Raeubersagen
!!!URL-scan: https://rosdok.uni-rostock.de/mcrviewer/recordIdentifier/rosdok_ppn745146120/iview2/phys_0201.iview2?x=-250.1417780126858&y=1798.785559245618&scale=0.5392104374602399&rotation=0&layout=singlePageLayout&logicalDiv=log_0009
!!!ENC: Anna Maria Matuszewska
!!!EEV: 2024/11/25
*-	*-
